X:1
T:Title
%%score 1 { 2 | 3 }
L:1/8
Q:1/4=88
M:2/4
K:Bb
V:1 treble nm="Grand Piano, Soprano"
V:2 treble nm="Choir Pad, Ever to the Right"
V:3 bass 
V:1
 [FB]<[FB] [FB]>[FB] | [FB]2 .F2 | [EG]<[EG] [EA]>[EA] | .[DB]4 | [Fd][Fd] [Fd][Fd] | %5
w: By~Tullius~Clinton~O�Kane * * *|||||
 [FB][FA] [EG]2 | [=Ec][Ec] [Ec][FB] | [CA][CG] [CF]F | [FB]<[FB] [Fc]>[Fc] | .[Fd]4 | %10
w: |||||
 [Ge]<[Gc] [FB]>[FA] | [FB]4 | [DF]<[DB] z2 | z2 [DB]2 | [CA]<[Ec] z2 | z2 [Ec]2 | %16
w: ||||||
 [Fd]<[Fd] [Gd][_Ad] | [Ge]2 .[Gc]2 | F<[DF] [EA]>[EA] | [DB]4- | [DB]4 |] %21
w: |||||
V:2
 D<D D>D | D2 B,2 | B,<C C>C | .B,4 | B,B, B,A, | B,B, B,2 | G,G, G,B, | CB, A,2 | B,<B, A,>A, | %9
 .B,4 | B,<B, D>C | D4 | z2 DD | D2 z2 | z2[K:bass] A,A, | A,2 z2 | B,<B, B,B, | B,2 .B,2 | %18
 D<B, C>C | B,4- | B,4 |] %21
V:3
 B,,<B,, B,,>B,, | B,,2 D,2 | .E,2 F,>F, | .B,,4 | B,,B,, B,,C, | D,D, D,2 | C,C, C,D, | %7
 E,=E, F,_E, | D,<D, F,>F, | z4 | E,<E, F,>F, | B,,4 | z2 [B,,B,][B,,B,] | [B,,B,]2 z2 | z2 F,F, | %15
 F,2 z2 | z/ _A,3/2 G,F, | E,2 .E,2 | F,<F, F,>F, | B,,4- | B,,4 |] %21

